X: 3387
T: Beoga
R: reel
M: 4/4
K: Bminor
|:B2bB abfe|defe edcd|B2bB abd'c'|b3b- befa|
b2b/b/b abfe|defe edcd|Bcde fBB/B/B|defe edcd:|
|:Bcde fBB/B/B|^Acde f^AA/A/A|=Acde f=AA/A/A|^Gcde f^GG/G/G|
=Gcde fgfe|dcEc dcFc|Gcde fgfe|1 f/e/dcB ^AcF2:|2 f/e/dcdB4||

